!!!OTL: 780. Wiedersehn.
!!!COM: F. H. Himmel
!!!ODT: 1817
!!!ARE: Europa, Mitteleuropa, Deutschland
!!!SCT: B0780
!!!TXL: @@DE
!!!YEM: Copyright 1995, estate of Helmut Schaffrath.
**kern	**text
*ICvox	*
*Ivox	*
*clefG2	*
*M4/4	*
*met(c)	*
*k[b-e-a-]	*
*E-:	*
=1	=1
!LO:TX:a:t=Gemäßt.	!
{2.b-	Wie-
4g	-der-
=2	=2
2g	-ſehn!
4r}	.
{8e-	Wort
8g	des
=3	=3
4.b-	Tro-
8b-	-ſtes,
8b-L	o
8ccJ	.
8ddL	wie
8ee-J	.
=4	=4
(4ee-qq	.
2dd)	ſchön
4r}	.
{8dd	tönſt
8cc	du
=5	=5
4.b-	vom
8cc	ge-
4b-	-lieb-
4a-	-ten
=6	=6
4a-	Munde,
4g	.
4r}	.
{8.g	wenn
16f	in
=7	=7
4.f	ban-
8e-	-ger
4.e-	Abſchiedsſtun-
8d	.
=8	=8
(4c	.
4d)	.
4e-}	-de
{8f	wir
8g	am
=9	=9
4.a-	Schei-
8f	-de-
8a-L	-we-
8gJ	.
8fL	-ge
8e-J	.
=10	=10
2f	ſtehn.
2r}	.
=11	=11
{4.cc	Wie-
8a-	-der-
4.dd	-ſehn,
8b-	o
=12	=12
4.ee-	Wie-
8b-	-der-
4b-;	-ſehn,
8gL	o
8e-J	.
=13	=13
2.b-	Wie-
4d	-der-
=14	=14
1e-;}	-ſehn!
==	==
!!!AGN: Trost - Lied, Abschied
!!!ONB: ESAC (Essen Associative Code) Database: BOEHME
!!!AMT: simple quadruple
!!!AIN: vox
!!!EED: Helmut Schaffrath
!!!EEV: 1.0
!!!GTL: Religioese Lieder
!!@@COMMENT:"Das Lied ſteht ʒuerſt in "Mauriſche geſellſchaftliche Lieder". Berlin 1817, S. 121. Verf.
!!unbekannt. Melodie hier eine Chor-Arie der Currende in Weimar, von 1820-1849 geſungen.
!!Komponiſt F. H. Himmel. Eine verkünſtelte Mel. von Ʒumſteeg bei Fink, Hausſchatʒ Nr. 1000."
!!@@END:
!!!URL-scan: https://archive.org/details/BoehmeVtLieder1895/page/n621/mode/2up
!!!ENC: Anna Maria Matuszewska
!!!EEV: 2024/19/07
*-	*-
